!!!Melodie: eigene
!!!Typ: Lied
**kern	**silbe	**silbe	**silbe	**silbe	**silbe	**silbe	**silbe	**silbe	**silbe	**silbe	**silbe	**silbe	**silbe	**silbe	**silbe
*clefG2	*lang:DE	*lang:DE	*lang:DE	*lang:DE	*lang:DE	*lang:DE	*lang:DE	*lang:DE	*lang:DE	*lang:DE	*lang:DE	*lang:DE	*lang:DE	*lang:DE	*lang:DE
*k[b-]	*	*	*	*	*	*	*	*	*	*	*	*	*	*	*
*M4/4	*	*	*	*	*	*	*	*	*	*	*	*	*	*	*
*met(c)	*	*	*	*	*	*	*	*	*	*	*	*	*	*	*
2g	Herz#	Du	Was	Wie	Der	Ich	O	Ach	Ich	Doch	Weil	Als#	Ich	Dies	Wenn
4g	#lieb#	wirst	ist	wun#	From#	war	gro#	gro#	kann’s	ist	a#	#dann	wer#	al#	dort,
4g	#ster	ver#	die	#der#	#me	von	#ße	#ßer	mit	noch	#ber	so	#de	#les,	Herr
=	=	=	=	=	=	=	=	=	=	=	=	=	=	=	=
2f	Je#	#speit,	Ur#	#bar#	stirbt,	Fuß	Lieb’!	Kö#	mei#	et#	dies	werd’	dir	ob’s	Je#
2d	#su,	ge#	#sach'	#lich	der	auf	O	#nig,	#nen	#was,	nicht	ich	zu	für	#su,
=	=	=	=	=	=	=	=	=	=	=	=	=	=	=	=
4g	was	#schla#	al#	ist	recht	vol#	Lieb’	groß	Sin#	das	steht	dei#	Eh#	schlecht	dort
4a	hast	#gen	#ler	doch	und	#ler	ohn’	zu	#nen	dir	in	#ne	#ren	zwar	vor
4b-	du	und	sol#	die#	rich#	Schand’	al#	al#	nicht	an#	eig#	Huld	al#	ist	dei#
4b-	ver#	ver#	#cher	#se	#tig	und	#le	#len	er#	#ge#	#'nen	be#	#les	zu	#nem
=	=	=	=	=	=	=	=	=	=	=	=	=	=	=	=
2cc	#broch#	#höh#	Pla#	Stra#	wan#	Sün#	Ma#	Zei#	#rei#	#neh#	Kräf#	#trach#	wa#	schät#	Thro#
2a	#en,	#net,	#gen?	#fe!	#delt.	#den,	#ße!	#ten,	#chen,	#me,	#ten,	#ten,	#gen,	#zen,	#ne
=	=	=	=	=	=	=	=	=	=	=	=	=	=	=	=
2a	dass	ge#	Ach	der	Der	bis	Die	wie	mit	wenn	dem	aus	kein	wirst	auf
4b-	man	#gei#	mei#	gu#	Bö#	zu	dich	kann	was	ich	Kreu#	Lieb’	Kreuz	du	mei#
4cc	ein	#ßelt	#ne	#te	#se	der	ge#	ich	doch	des	#ze	an	nicht	es	#nem
=	=	=	=	=	=	=	=	=	=	=	=	=	=	=	=
2dd	solch’	und	Sün#	Hir#	lebt,	Schei#	#bracht	g’nüg#	dein	Flei#	dies	dich	ach#	doch	Haup#
2b-	scharf’	mit	#den	#te	der	#tel	auf	#sam	Er#	#sches	Be#	die	#ten,	gar	#te
=	=	=	=	=	=	=	=	=	=	=	=	=	=	=	=
4ee-	Ur#	Dor#	ha#	lei#	wi#	war	die#	solch’	#bar#	Lus#	#gier#	Welt	kei#	nicht	steh’n
4ee-	#teil	#nen	#ben	#det	#der	nichts	#se	Treu’	#men	#ten	#den	für	#ne	bei#	ein’
4dd	hat	scharf	dich	für	Gott	gut’s	Mar#	aus#	zu	dämpf’	an#	nich#	Schmach	#sei#	Eh#
4dd	ge#	ge#	ge#	die	miss#	zu	#ter#	#be#	ver#	und	#zu#	#tes	noch	#te	#ren#
=	=	=	=	=	=	=	=	=	=	=	=	=	=	=	=
2cc	#spro#	#krö#	#schla#	Scha#	#han#	fin#	#stra#	#rei#	#glei#	zäh#	#hef#	ach#	Pla#	set#	#kro#
2b-	#chen?	#net,	#gen;	#fe:	#delt.	#den,	#ße:	#ten?	#chen:	#me,	#ten,	#ten.	#gen,	#zen,	#ne,
=	=	=	=	=	=	=	=	=	=	=	=	=	=	=	=
2b-	Was	mit	Ich,	Die	Der	Da#	Ich	Kein	Wie	dass	so	Ich	nichts	in	da
4a	ist	Es#	ach	Schuld	Mensch	#für	leb#	mensch#	kann	sie	gib	wer#	von	Gna#	will
4g	die	#sig,	Herr	be#	ver#	hätt’	#te	#lich	ich	auf’s	mir	#de	Ver#	#den	ich
=	=	=	=	=	=	=	=	=	=	=	=	=	=	=	=
2f	Schuld?	als	Je#	#zahlt	#wirkt	ich	mit	Her#	dir	Neu’	dei#	mich,	#fol#	wirst	dir,
2d	In	man	#su,	der	den	dort	der	#ze	denn	mein	#nen	be#	#gung,	du	wenn
=	=	=	=	=	=	=	=	=	=	=	=	=	=	=	=
4f	was	dich	ha#	Her#	Tod	in	Welt	mag	dei#	Her#	Geist,	#mü#	nichts	dies	al#
4f	für	ans	#be	#re,	und	der	in	ihm	#ne	#ze	der	#hen,	von	von	#les
4g	Mis#	Kreuz	dies	der	ist	Höl#	Lust	dies	Lie#	nicht	mich	dei#	To#	mir	wird
4f	#se#	ge#	ver#	Ge#	ent#	#len	und	aus#	#bes#	ent#	re#	#nen	#des#	an#	wohl#
=	=	=	=	=	=	=	=	=	=	=	=	=	=	=	=
2e-	#ta#	#hen#	#schul#	#rech#	#gan#	müs#	Freu#	#den#	#ta#	#zün#	#gie#	Wil#	#schmer#	#neh#	#klin#
2d	#ten	#ket,	#det,	#te,	#gen,	#sen	#den,	#ken,	#ten	#den	#re,	#len	#zen	#men,	#gen,
=	=	=	=	=	=	=	=	=	=	=	=	=	=	=	=
2dd	bist	wirst	was	für	Gott	e#	und	was	im	mit	zum	stets	neh#	mich	Lob
4cc	du	du	du	sei#	wird	#wig#	du	dir	Werk	al#	Gu#	zu	#men	nicht	und
4b-	ge#	ge#	er#	#ne	ge#	#lich	musst	zu	er#	#ten	#ten	er#	zu	be#	Dank
=	=	=	=	=	=	=	=	=	=	=	=	=	=	=	=
2a	#ra#	#trän#	#dul#	Knech#	#fan#	bü#	lei#	schen#	#stat#	Sün#	füh#	#fül#	Her#	#schä#	sin#
2;g	#ten?	#ket.	#det.	#te.	#gen.	#ßen.	#den.	#ken.	#ten?	#den.	#re.	#len.	#zen.	#men.	#gen.
==	==	==	==	==	==	==	==	==	==	==	==	==	==	==	==
*-	*-	*-	*-	*-	*-	*-	*-	*-	*-	*-	*-	*-	*-	*-	*-
